X:1
T:
% --- start of displayed header in the book ---
M:4/4
K:D
% --- end of header ---
T:D = Dmajor = D maj
DEFG ABcd|\
K:Dmajor
DEFG ABcd|\
K:D maj
DEFG ABcd|]
T:D Lydian / D Ionian / D Mixolydian
M:2/4
K:D Lydian
DEFG ABcd|\
K:D Ionian
DEFG ABcd|\
K:D Mixolydian
DEFG ABcd|]
T:D Dorian / D Minor = Dm
M:6/8
K:D Dorian
DEF/2G/2 ABc/2d/2|\
K:D Minor
DEF/2G/2 ABc/2d/2|\
K:Dm
DEF/2G/2 ABc/2d/2|]
T:D Phrygian / D Locrian
K:D Phrygian
DEF/2G/2 ABc/2d/2|\
K:D Locrian
DEF/2G/2 ABc/2d/2|]
% --- end of song ---
